X: 21505
T: MOLL BROOKS
C:
%R: jig
B: Elias Howe "The Musician's Companion" 1843 p.150 #5
S: http://imslp.org/wiki/The_Musician's_Companion_(Howe,_Elias)
Z: 2015 John Chambers <jc:trillian.mit.edu>
M: 6/8
L: 1/8
K: G
% - - - - - - - - - - - - - - - - - - - - - - - - -
V: 1
G/A/ |\
B2B BAB | c3 B3 |\
A2A AGA | B3 G2G/A/ |\
B2B BAB | c3 B2d |\
B2A AGA | G3 z2 :|\
B/c/ |\
d2d g2e | d3 z2B/c/ |\
d2d g2e | d3 "^D.C."z2 |]
% - - - - - - - - - - - - - - - - - - - - - - - - -
